;Generated with Cura_SteamEngine 15.05
; Default start code
G28 ; Home extruder
G1 Z15 F100
M107 ; Turn off fan
G90 ; Absolute positioning
M82 ; Extruder in absolute mode
M190 S70
; Activate all used extruder
M104 T0 S205
G92 E0 ; Reset extruder position
; Wait for all used extruders to reach temperature
M109 T0 S205
;Layer count: 50
;LAYER:0
M107
G0 F9000 X15.353 Y-9.028 Z0.300
;TYPE:SKIRT
G1 F1800 X15.630 Y-8.549 E0.02761
G1 X16.200 Y-7.563 E0.08443
G1 X16.470 Y-7.095 E0.11138
G1 X16.772 Y-6.571 E0.14155
G1 X16.771 Y-6.571 E0.14160
G1 X16.910 Y-6.332 E0.15540
G1 X17.193 Y-5.842 E0.18363
G1 X17.761 Y-4.859 E0.24027
G1 X17.912 Y-4.598 E0.25531
G1 X18.039 Y-4.375 E0.26812
G1 X18.327 Y-3.879 E0.29673
G1 X18.611 Y-3.386 E0.32512
G1 X18.895 Y-2.894 E0.35346
G1 X19.749 Y-1.416 E0.43862
G1 X19.891 Y-1.170 E0.45279
G1 X20.154 Y-0.715 E0.47901
G1 X20.457 Y-0.190 E0.50925
G1 X20.602 Y0.061 E0.52371
G1 X20.743 Y0.305 E0.53777
G1 X21.023 Y0.791 E0.56576
G1 X21.308 Y1.284 E0.59417
G1 X21.595 Y1.781 E0.62280
G1 X21.737 Y2.028 E0.63701
G1 X22.018 Y2.513 E0.66498
G1 X22.307 Y3.015 E0.69388
G1 X22.558 Y3.448 E0.71885
G1 X22.756 Y3.774 E0.73787
G1 X23.044 Y4.214 E0.76411
G1 X23.285 Y4.557 E0.78502
G1 X23.533 Y4.876 E0.80518
G1 X23.770 Y5.152 E0.82333
G1 X24.057 Y5.444 E0.84376
G1 X24.147 Y5.525 E0.84980
G1 X24.302 Y5.648 E0.85967
G1 X24.446 Y5.742 E0.86825
G1 X24.526 Y5.782 E0.87271
G1 X24.717 Y5.454 E0.89165
G1 X24.718 Y5.454 E0.89170
G1 X24.967 Y5.023 E0.91653
G1 X25.057 Y4.862 E0.92574
G1 X25.137 Y4.725 E0.93365
G1 X25.279 Y4.480 E0.94778
G1 X25.556 Y3.993 E0.97573
G1 X25.726 Y3.706 E0.99237
G1 X25.814 Y3.550 E1.00131
G1 X25.875 Y3.448 E1.00724
G1 X26.000 Y3.234 E1.01960
G1 X26.236 Y2.822 E1.04329
G1 X26.289 Y2.727 E1.04872
G1 X26.428 Y2.490 E1.06242
G1 X26.697 Y2.025 E1.08923
G1 X26.979 Y1.536 E1.11739
G1 X27.254 Y1.055 E1.14503
G1 X27.274 Y1.022 E1.14695
G1 X28.046 Y-0.297 E1.22320
G1 X29.086 Y-0.852 E1.28201
G1 X30.489 Y-1.673 E1.36311
G1 X33.090 Y-1.239 E1.49467
G1 X34.248 Y-0.572 E1.56134
G1 X34.684 Y-0.321 E1.58644
G1 X35.253 Y0.008 E1.61923
G1 X35.874 Y0.366 E1.65500
G1 X35.905 Y0.392 E1.65701
G1 X38.564 Y1.576 E1.80223
G1 X40.019 Y2.096 E1.87932
G1 X37.160 Y7.108 E2.16719
G1 X36.642 Y8.001 E2.21869
G1 X36.396 Y8.428 E2.24328
G1 X36.127 Y8.892 E2.27004
G1 X35.848 Y9.378 E2.29799
G1 X35.556 Y9.880 E2.32697
G1 X35.277 Y10.363 E2.35480
G1 X34.995 Y10.852 E2.38296
G1 X34.994 Y10.852 E2.38301
G1 X34.713 Y11.340 E2.41110
G1 X34.459 Y11.782 E2.43654
G1 X34.198 Y12.235 E2.46262
G1 X33.944 Y12.676 E2.48801
G1 X33.739 Y13.032 E2.50850
G1 X33.641 Y13.220 E2.51908
G1 X33.579 Y13.370 E2.52718
G1 X33.499 Y13.612 E2.53989
G1 X33.425 Y13.885 E2.55401
G1 X33.358 Y14.183 E2.56924
G1 X33.259 Y14.748 E2.59786
G1 X33.190 Y15.215 E2.62141
G1 X33.062 Y16.030 E2.66257
G1 X32.932 Y16.707 E2.69697
G1 X32.769 Y17.379 E2.73146
G1 X32.652 Y17.797 E2.75312
G1 X32.425 Y18.489 E2.78945
G1 X32.248 Y18.948 E2.81400
G1 X31.913 Y19.694 E2.85479
G1 X31.508 Y20.429 E2.89666
G1 X31.409 Y20.591 E2.90613
G1 X31.005 Y21.207 E2.94289
G1 X30.613 Y21.723 E2.97522
G1 X30.255 Y22.149 E3.00298
G1 X29.616 Y22.825 E3.04939
G1 X29.128 Y23.286 E3.08288
G1 X28.389 Y23.923 E3.13155
G1 X28.322 Y23.970 E3.13564
G1 X28.198 Y24.072 E3.14365
G1 X27.730 Y24.440 E3.17335
G1 X27.318 Y24.778 E3.19994
G1 X27.030 Y25.033 E3.21913
G1 X26.816 Y25.240 E3.23398
G1 X26.620 Y25.453 E3.24842
G1 X26.475 Y25.630 E3.25984
G1 X26.339 Y25.849 E3.27270
G1 X26.092 Y26.278 E3.29740
G1 X25.832 Y26.725 E3.32320
G1 X25.584 Y27.154 E3.34792
G1 X25.330 Y27.597 E3.37339
G1 X25.067 Y28.052 E3.39961
G1 X24.775 Y28.556 E3.42867
G1 X24.774 Y28.556 E3.42872
G1 X24.492 Y29.043 E3.45680
G1 X24.493 Y29.043 E3.45685
G1 X24.209 Y29.534 E3.48515
G1 X23.662 Y30.482 E3.53975
G1 X23.618 Y30.561 E3.54426
G1 X23.210 Y31.263 E3.58477
G1 X22.931 Y31.746 E3.61260
G1 X22.424 Y32.630 E3.66344
G1 X22.364 Y32.697 E3.66793
G1 X21.552 Y34.077 E3.74781
G1 X21.046 Y34.161 E3.77340
G1 X19.556 Y35.817 E3.88454
G1 X17.864 Y34.689 E3.98599
G1 X17.783 Y34.702 E3.99009
G1 X15.912 Y33.679 E4.09647
G1 X15.375 Y33.369 E4.12741
G1 X14.927 Y33.110 E4.15322
G1 X13.900 Y32.518 E4.21236
G1 X13.765 Y32.369 E4.22239
G1 X13.611 Y32.276 E4.23137
G1 X10.839 Y29.503 E4.42698
G1 X12.780 Y26.127 E4.62127
G1 X13.077 Y25.615 E4.65080
G1 X13.642 Y24.637 E4.70715
G1 X13.924 Y24.148 E4.73531
G1 X14.204 Y23.662 E4.76329
G1 X14.469 Y23.197 E4.78999
G1 X15.067 Y22.169 E4.84933
G1 X15.343 Y21.690 E4.87691
G1 X15.475 Y21.456 E4.89031
G1 X15.434 Y21.426 E4.89285
G1 X15.383 Y21.396 E4.89580
G1 X15.200 Y21.311 E4.90587
G1 X15.092 Y21.270 E4.91163
G1 X14.969 Y21.227 E4.91813
G1 X14.749 Y21.166 E4.92952
G1 X14.466 Y21.100 E4.94402
G1 X14.015 Y21.027 E4.96681
G1 X13.478 Y20.967 E4.99377
G1 X13.365 Y20.958 E4.99942
G1 X12.785 Y20.930 E5.02839
G1 X12.117 Y20.922 E5.06172
G1 X11.427 Y20.921 E5.09615
G1 X-12.113 Y20.921 E6.27056
G1 X-12.767 Y20.928 E6.30319
G1 X-13.325 Y20.955 E6.33106
G1 X-13.869 Y21.006 E6.35832
G1 X-14.188 Y21.051 E6.37440
G1 X-14.344 Y21.076 E6.38228
G1 X-14.431 Y21.093 E6.38670
G1 X-14.784 Y21.174 E6.40477
G1 X-14.851 Y21.192 E6.40823
G1 X-15.080 Y21.266 E6.42024
G1 X-15.253 Y21.336 E6.42955
G1 X-15.439 Y21.430 E6.43995
G1 X-15.452 Y21.437 E6.44068
G1 X-15.476 Y21.454 E6.44215
G1 X-15.474 Y21.458 E6.44237
G1 X-15.338 Y21.702 E6.45631
G1 X-15.075 Y22.155 E6.48244
G1 X-14.792 Y22.643 E6.51059
G1 X-14.793 Y22.643 E6.51064
G1 X-14.511 Y23.127 E6.53858
G1 X-14.249 Y23.580 E6.56469
G1 X-13.957 Y24.091 E6.59405
G1 X-13.642 Y24.640 E6.62563
G1 X-13.371 Y25.107 E6.65257
G1 X-13.090 Y25.592 E6.68053
G1 X-12.799 Y26.093 E6.70944
G1 X-12.133 Y27.264 E6.77665
G1 X-11.445 Y31.274 E6.97963
G1 X-13.873 Y32.492 E7.11515
G1 X-13.907 Y32.530 E7.11770
G1 X-14.882 Y33.080 E7.17354
G1 X-15.335 Y33.345 E7.19973
G1 X-15.907 Y33.675 E7.23267
G1 X-17.742 Y34.679 E7.33703
G1 X-18.140 Y34.619 E7.35711
G1 X-20.549 Y35.824 E7.49149
G1 X-22.897 Y31.809 E7.72354
G1 X-23.141 Y31.383 E7.74803
G1 X-23.408 Y30.928 E7.77435
G1 X-23.426 Y30.892 E7.77636
G1 X-23.620 Y30.557 E7.79567
G1 X-23.893 Y30.082 E7.82301
G1 X-24.214 Y29.523 E7.85517
G1 X-24.483 Y29.056 E7.88205
G1 X-24.760 Y28.578 E7.90962
G1 X-25.043 Y28.091 E7.93772
G1 X-25.316 Y27.620 E7.96488
G1 X-25.604 Y27.120 E7.99366
G1 X-25.862 Y26.673 E8.01941
G1 X-26.202 Y26.081 E8.05347
G1 X-26.376 Y25.782 E8.07073
G1 X-26.519 Y25.575 E8.08328
G1 X-26.686 Y25.377 E8.09621
G1 X-26.911 Y25.147 E8.11226
G1 X-27.244 Y24.845 E8.13469
G1 X-27.746 Y24.428 E8.16725
G1 X-28.106 Y24.143 E8.19015
G1 X-28.800 Y23.575 E8.23489
G1 X-29.454 Y22.983 E8.27891
G1 X-29.847 Y22.590 E8.30663
G1 X-30.275 Y22.126 E8.33813
G1 X-30.624 Y21.710 E8.36522
G1 X-31.156 Y20.985 E8.41008
G1 X-31.417 Y20.584 E8.43395
G1 X-31.806 Y19.900 E8.47321
G1 X-32.162 Y19.149 E8.51467
G1 X-32.220 Y19.009 E8.52223
G1 X-32.415 Y18.521 E8.54845
G1 X-32.653 Y17.799 E8.58638
G1 X-32.770 Y17.380 E8.60808
G1 X-32.930 Y16.710 E8.64245
G1 X-33.054 Y16.075 E8.67473
G1 X-33.110 Y15.738 E8.69177
G1 X-33.153 Y15.460 E8.70581
G1 X-33.193 Y15.189 E8.71947
G1 X-33.213 Y15.051 E8.72643
G1 X-33.216 Y15.035 E8.72724
G1 X-33.266 Y14.695 E8.74439
G1 X-33.297 Y14.502 E8.75414
G1 X-33.318 Y14.384 E8.76012
G1 X-33.360 Y14.168 E8.77110
G1 X-33.378 Y14.086 E8.77528
G1 X-33.436 Y13.840 E8.78789
G1 X-33.466 Y13.723 E8.79392
G1 X-33.502 Y13.595 E8.80055
G1 X-33.525 Y13.525 E8.80423
G1 X-33.609 Y13.294 E8.81649
G1 X-33.696 Y13.105 E8.82687
G1 X-33.840 Y12.851 E8.84144
G1 X-34.125 Y12.360 E8.86976
G1 X-34.410 Y11.867 E8.89817
G1 X-34.685 Y11.390 E8.92564
G1 X-34.957 Y10.920 E8.95274
G1 X-35.284 Y10.349 E8.98556
G1 X-35.830 Y9.407 E9.03988
G1 X-35.849 Y9.374 E9.04178
G1 X-35.986 Y9.134 E9.05557
G1 X-36.270 Y8.643 E9.08387
G1 X-36.415 Y8.394 E9.09824
G1 X-36.558 Y8.143 E9.11266
G1 X-36.559 Y8.143 E9.11271
G1 X-36.700 Y7.898 E9.12681
G1 X-36.810 Y7.712 E9.13759
G1 X-36.854 Y7.640 E9.14180
G1 X-36.981 Y7.411 E9.15486
G1 X-37.265 Y6.919 E9.18321
G1 X-40.128 Y2.013 E9.46660
G1 X-37.988 Y1.300 E9.57913
G1 X-35.846 Y0.362 E9.69579
G1 X-35.792 Y0.319 E9.69924
G1 X-35.109 Y-0.075 E9.73858
G1 X-34.761 Y-0.276 E9.75863
G1 X-34.360 Y-0.507 E9.78171
G1 X-34.350 Y-0.513 E9.78229
G1 X-33.841 Y-0.807 E9.81162
G1 X-33.096 Y-1.239 E9.85459
G1 X-30.330 Y-1.698 E9.99447
G1 X-29.544 Y-1.169 E10.04174
G1 X-28.426 Y-0.966 E10.09843
G1 X-27.135 Y1.267 E10.22711
G1 X-26.854 Y1.752 E10.25507
G1 X-26.572 Y2.239 E10.28315
G1 X-26.296 Y2.714 E10.31056
G1 X-26.009 Y3.214 E10.33932
G1 X-25.749 Y3.664 E10.36525
G1 X-25.413 Y4.249 E10.39891
G1 X-25.148 Y4.707 E10.42531
G1 X-24.871 Y5.186 E10.45291
G1 X-24.589 Y5.671 E10.48090
G1 X-24.522 Y5.784 E10.48745
G1 X-24.393 Y5.710 E10.49487
G1 X-24.242 Y5.601 E10.50417
G1 X-24.046 Y5.432 E10.51708
G1 X-23.796 Y5.178 E10.53486
G1 X-23.522 Y4.862 E10.55572
G1 X-23.304 Y4.583 E10.57339
G1 X-23.152 Y4.372 E10.58636
G1 X-22.965 Y4.099 E10.60287
G1 X-22.654 Y3.605 E10.63199
G1 X-22.572 Y3.471 E10.63983
G1 X-22.308 Y3.017 E10.66603
G1 X-21.749 Y2.047 E10.72189
G1 X-21.636 Y1.851 E10.73317
G1 X-21.308 Y1.284 E10.76585
G1 X-21.026 Y0.796 E10.79397
G1 X-20.745 Y0.309 E10.82202
G1 X-20.647 Y0.138 E10.83186
G1 X-20.318 Y-0.432 E10.86469
G1 X-20.034 Y-0.923 E10.89299
G1 X-19.607 Y-1.661 E10.93553
G1 X-19.040 Y-2.644 E10.99214
G1 X-18.925 Y-2.842 E11.00357
G1 X-18.899 Y-2.888 E11.00620
G1 X-18.756 Y-3.136 E11.02049
G1 X-18.616 Y-3.378 E11.03443
G1 X-18.332 Y-3.870 E11.06278
G1 X-18.187 Y-4.122 E11.07728
G1 X-18.039 Y-4.376 E11.09195
G1 X-17.947 Y-4.537 E11.10120
G1 X-17.766 Y-4.851 E11.11928
G1 X-17.479 Y-5.348 E11.14791
G1 X-17.335 Y-5.596 E11.16222
G1 X-17.188 Y-5.851 E11.17691
G1 X-16.911 Y-6.331 E11.20455
G1 X-16.771 Y-6.573 E11.21850
G1 X-16.629 Y-6.819 E11.23267
G1 X-16.628 Y-6.819 E11.23272
G1 X-16.491 Y-7.059 E11.24651
G1 X-16.202 Y-7.560 E11.27537
G1 X-16.062 Y-7.802 E11.28931
G1 X-15.635 Y-8.542 E11.33194
G1 X-15.350 Y-9.034 E11.36030
G1 X-15.237 Y-9.230 E11.37159
G1 X-15.205 Y-9.285 E11.37477
G1 X-15.072 Y-9.517 E11.38811
G1 X-14.925 Y-9.772 E11.40279
G1 X-14.781 Y-10.020 E11.41710
G1 X-14.746 Y-10.080 E11.42057
G1 X-14.643 Y-10.259 E11.43087
G1 X-14.215 Y-11.001 E11.47360
G1 X-14.075 Y-11.243 E11.48755
G1 X-13.791 Y-11.735 E11.51589
G1 X-13.790 Y-11.735 E11.51594
G1 X-13.651 Y-11.978 E11.52991
G1 X-13.508 Y-12.226 E11.54419
G1 X-13.365 Y-12.472 E11.55839
G1 X-13.272 Y-12.634 E11.56771
G1 X-13.224 Y-12.717 E11.57249
G1 X-12.938 Y-13.213 E11.60106
G1 X-12.788 Y-13.471 E11.61595
G1 X-12.766 Y-13.509 E11.61814
G1 X-12.658 Y-13.697 E11.62895
G1 X-12.538 Y-13.906 E11.64098
G1 X-12.230 Y-14.439 E11.67169
G1 X-11.945 Y-14.933 E11.70014
G1 X-11.794 Y-15.194 E11.71519
G1 X-11.663 Y-15.421 E11.72826
G1 X-11.521 Y-15.667 E11.74243
G1 X-11.087 Y-16.417 E11.78566
G1 X-11.046 Y-16.488 E11.78975
G1 X-10.952 Y-16.651 E11.79914
G1 X-10.951 Y-16.651 E11.79919
G1 X-10.885 Y-16.766 E11.80581
G1 X-10.875 Y-16.786 E11.80692
G1 X-10.670 Y-17.141 E11.82737
G1 X-10.384 Y-17.637 E11.85594
G1 X-10.240 Y-17.885 E11.87024
G1 X-10.110 Y-18.114 E11.88338
G1 X-10.094 Y-18.142 E11.88499
G1 X-9.898 Y-18.498 E11.90527
G1 X-9.793 Y-18.699 E11.91658
G1 X-9.730 Y-18.822 E11.92347
G1 X-9.539 Y-19.227 E11.94581
G1 X-9.400 Y-19.549 E11.96331
G1 X-9.229 Y-20.020 E11.98831
G1 X-9.118 Y-20.409 E12.00849
G1 X-9.074 Y-20.623 E12.01939
G1 X-9.052 Y-20.785 E12.02755
G1 X-9.044 Y-20.916 E12.03410
G1 X-9.047 Y-21.024 E12.03949
G1 X-9.274 Y-21.023 E12.05081
G1 X-9.292 Y-21.024 E12.05171
G1 X-9.520 Y-21.023 E12.06309
G1 X-9.538 Y-21.024 E12.06399
G1 X-9.766 Y-21.023 E12.07536
G1 X-9.784 Y-21.024 E12.07626
G1 X-10.012 Y-21.023 E12.08764
G1 X-10.030 Y-21.024 E12.08853
G1 X-10.257 Y-21.023 E12.09986
G1 X-10.275 Y-21.024 E12.10076
G1 X-10.503 Y-21.023 E12.11213
G1 X-10.521 Y-21.024 E12.11303
G1 X-10.749 Y-21.023 E12.12441
G1 X-10.767 Y-21.024 E12.12531
G1 X-10.995 Y-21.023 E12.13668
G1 X-11.013 Y-21.024 E12.13758
G1 X-11.240 Y-21.023 E12.14891
G1 X-11.258 Y-21.024 E12.14981
G1 X-11.486 Y-21.023 E12.16118
G1 X-11.504 Y-21.024 E12.16208
G1 X-11.732 Y-21.023 E12.17346
G1 X-11.750 Y-21.024 E12.17436
G1 X-11.978 Y-21.023 E12.18573
G1 X-11.996 Y-21.024 E12.18663
G1 X-12.224 Y-21.023 E12.19801
G1 X-12.242 Y-21.024 E12.19891
G1 X-12.469 Y-21.023 E12.21023
G1 X-12.487 Y-21.024 E12.21113
G1 X-12.715 Y-21.023 E12.22250
G1 X-12.733 Y-21.024 E12.22340
G1 X-12.961 Y-21.023 E12.23478
G1 X-12.979 Y-21.024 E12.23568
G1 X-13.207 Y-21.023 E12.24705
G1 X-13.225 Y-21.024 E12.24795
G1 X-13.453 Y-21.023 E12.25933
G1 X-13.471 Y-21.024 E12.26023
G1 X-13.698 Y-21.023 E12.27155
G1 X-13.716 Y-21.024 E12.27245
G1 X-13.944 Y-21.023 E12.28383
G1 X-13.962 Y-21.024 E12.28473
G1 X-14.190 Y-21.023 E12.29610
G1 X-14.208 Y-21.024 E12.29700
G1 X-14.436 Y-21.023 E12.30838
G1 X-14.454 Y-21.024 E12.30928
G1 X-14.681 Y-21.023 E12.32060
G1 X-14.694 Y-21.024 E12.32125
G1 X-15.199 Y-21.021 E12.34645
G1 X-17.708 Y-21.439 E12.47335
G1 X-19.202 Y-24.183 E12.62922
G1 X-19.255 Y-24.716 E12.65594
G1 X-19.310 Y-24.919 E12.66644
G1 X-19.399 Y-25.672 E12.70427
G1 X-19.415 Y-26.176 E12.72942
G1 X-19.415 Y-27.611 E12.80101
G1 X-19.380 Y-28.178 E12.82936
G1 X-19.249 Y-29.074 E12.87453
G1 X-17.926 Y-32.595 E13.06219
G1 X-14.660 Y-32.623 E13.22514
G1 X-14.178 Y-32.625 E13.24918
G1 X-14.168 Y-32.624 E13.24968
G1 X-13.932 Y-32.625 E13.26146
G1 X-13.922 Y-32.624 E13.26196
G1 X-13.686 Y-32.625 E13.27373
G1 X-13.676 Y-32.624 E13.27424
G1 X-13.440 Y-32.625 E13.28601
G1 X-13.430 Y-32.624 E13.28651
G1 X-13.195 Y-32.625 E13.29824
G1 X-13.185 Y-32.624 E13.29874
G1 X-12.949 Y-32.625 E13.31051
G1 X-12.939 Y-32.624 E13.31101
G1 X-12.703 Y-32.625 E13.32279
G1 X-12.693 Y-32.624 E13.32329
G1 X-12.457 Y-32.625 E13.33506
G1 X-12.447 Y-32.624 E13.33556
G1 X-12.211 Y-32.625 E13.34734
G1 X-12.201 Y-32.624 E13.34784
G1 X-11.966 Y-32.625 E13.35956
G1 X-11.956 Y-32.624 E13.36006
G1 X-11.720 Y-32.625 E13.37184
G1 X-11.710 Y-32.624 E13.37234
G1 X-11.474 Y-32.625 E13.38411
G1 X-11.464 Y-32.624 E13.38462
G1 X-11.228 Y-32.625 E13.39639
G1 X-11.218 Y-32.624 E13.39689
G1 X-10.982 Y-32.625 E13.40867
G1 X-10.972 Y-32.624 E13.40917
G1 X-10.737 Y-32.625 E13.42089
G1 X-10.727 Y-32.624 E13.42139
G1 X-10.491 Y-32.625 E13.43317
G1 X-10.481 Y-32.624 E13.43367
G1 X-10.245 Y-32.625 E13.44544
G1 X-10.235 Y-32.624 E13.44594
G1 X-9.999 Y-32.625 E13.45772
G1 X-9.989 Y-32.624 E13.45822
G1 X-9.754 Y-32.625 E13.46994
G1 X-9.744 Y-32.624 E13.47044
G1 X-9.508 Y-32.625 E13.48222
G1 X-9.498 Y-32.624 E13.48272
G1 X-9.262 Y-32.625 E13.49449
G1 X-9.252 Y-32.624 E13.49500
G1 X-9.016 Y-32.625 E13.50677
G1 X-9.006 Y-32.624 E13.50727
G1 X-8.770 Y-32.625 E13.51905
G1 X-8.760 Y-32.624 E13.51955
G1 X-8.525 Y-32.625 E13.53127
G1 X-8.515 Y-32.624 E13.53177
G1 X-8.279 Y-32.625 E13.54355
G1 X-8.269 Y-32.624 E13.54405
G1 X-8.033 Y-32.625 E13.55582
G1 X-8.023 Y-32.624 E13.55632
G1 X-7.787 Y-32.625 E13.56810
G1 X-7.777 Y-32.624 E13.56860
G1 X-7.542 Y-32.625 E13.58032
G1 X-7.532 Y-32.624 E13.58083
G1 X-7.376 Y-32.625 E13.58861
G1 X-7.072 Y-32.647 E13.60381
G1 X-6.772 Y-32.704 E13.61905
G1 X-6.514 Y-32.771 E13.63235
G1 X-6.171 Y-32.878 E13.65027
G1 X-5.847 Y-32.992 E13.66741
G1 X-5.411 Y-33.161 E13.69074
G1 X-4.911 Y-33.358 E13.71755
G1 X-4.320 Y-33.584 E13.74912
G1 X-3.642 Y-33.809 E13.78476
G1 X-2.976 Y-33.999 E13.81931
G1 X-2.556 Y-34.103 E13.84090
G1 X-1.819 Y-34.248 E13.87837
G1 X-1.015 Y-34.349 E13.91880
G1 X-0.204 Y-34.393 E13.95932
G1 X0.617 Y-34.377 E14.00029
G1 X1.477 Y-34.299 E14.04337
G1 X2.499 Y-34.116 E14.09517
G1 X2.977 Y-33.998 E14.11973
G1 X3.632 Y-33.811 E14.15371
G1 X4.275 Y-33.598 E14.18751
G1 X4.885 Y-33.369 E14.22001
G1 X5.435 Y-33.151 E14.24953
G1 X5.839 Y-32.994 E14.27115
G1 X6.160 Y-32.882 E14.28812
G1 X6.487 Y-32.777 E14.30525
G1 X6.775 Y-32.702 E14.32010
G1 X6.961 Y-32.662 E14.32959
G1 X7.312 Y-32.624 E14.34720
G1 X7.327 Y-32.623 E14.34795
G1 X7.696 Y-32.625 E14.36636
G1 X7.706 Y-32.624 E14.36686
G1 X7.942 Y-32.625 E14.37864
G1 X7.952 Y-32.624 E14.37914
G1 X8.187 Y-32.625 E14.39086
G1 X8.197 Y-32.624 E14.39137
G1 X8.433 Y-32.625 E14.40314
G1 X8.443 Y-32.624 E14.40364
G1 X8.679 Y-32.625 E14.41542
G1 X8.689 Y-32.624 E14.41592
